X:1
T:qui regarde vers lui resplendiras
L:1/8
Q:1/4=90
M:4/4
K:G
V:1 treble nm="Piano" snm="Pia."
V:1
"Em""^v1" E2 E2"B" F2 EF |"G" GG"D".AA"G" B3 B |"D" A2 BA"Em" G2 FE |"B" F4 F4 | %4
w: Qui re gar de vers|lui res plen di ra sans|om bre ni trouble au vi|sa ge|
"Em" E2 E2"B" F2 FF |"G" .GG"D"AA"G" B3 B |"D" A2 BA"Em" G2 FE |"B" F4"Em" E2 z2 | %8
w: Qui re gar de vers|lui res plen di ra sans|om bre ni trouble au vi|sa ge|
[M:6/8]"Em""^v2" e2 f .g>fe |"B" ^d2 e f2 g |"Em" e2 b"D" agf |"Em" .ee"B"^d"Em" e2"B" f | %12
w: Qui re gar de vers|lui res plen di|ra sans om bre ni|trouble au vi sa *|
"Em" .g3 z3 |"Em" e2 f .g>fe |"B" ^d2 e f2 g |"Em" e2 b"D" agf |"Em" .ee"B"^d"Em" e3 |] %17
w: ge|Qui re gar de vers|lui res plen di|ra sans om bre ni|trouble au vi sage|

